X: 1
T: Lake on the Mountain
M: 4/4
L: 1/8
%Q:1/4=79
S: Ian King  scots-l 2001-6-23
K:C
V:1
| G/2F/2E/2C/2C/2A,/2C/2C/2
G,/2C/2E/2G/2E/2C/2G,/2B,/2 | D/2F/2E/2F/2A/2G/2^F/2
G>=FE/2C/2C/2A,/2C/2 | C/2G,/2C/2E/2G/2E/2C/2F/2
d/2c/2B/2A/2B/2c2 | c/2A/2G/2E/2C/2C/2A,/2C/2 C/2G,/2C/2E/2G/2E/2C/2G,/2 |
B,/2D/2F/2E/2F/2A/2G/2 ^F<G=F/2E/2C/2C/2A,/2 | C/2C/2G,/2C/2E/2G/2E/2C/2
F/2d/2c/2B/2A/2B/2 | c2c/2e/2f/2 g>ag/2e/2c/2G/2c/2 | e/2g/2f/2e/2.f3/2a/2
f/2d/2B/2G/2B/2d/2f/2e/2 |
f/2 g>ag/2e/2c/2 G/2c/2e/2g/2f/2e/2f/2d/2 | B/2G/2A/2B/2c2
c/2e/2f/2.g3/2a/2g/2 | e/2c/2G/2c/2e/2g/2f/2e/2
.f3/2a/2f/2d/2B/2G/2 | B/2d/2f/2e/2f/2 g>ag/2e/2c/2G/2c/2e/2g/2 |
f/2e/2f/2d/2B/2G/2A/2B/2 c4-c/2 |
